images/place-two.svg

<svg width="52" height="50" viewBox="0 0 52 50" fill="none" xmlns="http://www.w3.org/2000/svg">
<path fill-rule="evenodd" clip-rule="evenodd" d="M28.2744 5.04948V0.0607069L22.8308 0L20.79 3.38628L23.2848 5.88191L28.2744 5.04948ZM22.4532 10.8707L15.8004 4.21705L12.474 7.54428L18.1472 12.5971L22.4532 10.8707ZM29.4478 14.7617L26.1264 12.3459L26.7301 9.62911L32.4324 9.20832L39.9168 15.0287L38.2536 20.0183L35.7588 21.6823L33.264 20.0183V17.5235L30.7692 14.1971L29.4478 14.7617ZM49.0644 47.4611H47.4012C46.942 47.4611 46.5696 47.0888 46.5696 46.6295C46.5696 46.1702 46.942 45.7979 47.4012 45.7979H49.0644C49.5237 45.7979 49.896 46.1702 49.896 46.6295C49.896 47.0888 49.5237 47.4611 49.0644 47.4611ZM49.0644 35.8187H50.7277C51.1869 35.8187 51.5593 35.4464 51.5593 34.9871C51.5593 34.5278 51.1869 34.1555 50.7277 34.1555H49.0644C48.6052 34.1555 48.2328 34.5278 48.2328 34.9871C48.2328 35.4464 48.6052 35.8187 49.0644 35.8187ZM39.0852 35.8187L44.0748 32.4923V29.1659L39.0852 24.1763L35.7588 27.5027L32.4324 24.1763L29.106 26.6711L32.4324 30.8291L29.9376 35.8187L27.4428 31.6607L21.6216 29.1659L24.948 22.5131L27.4428 19.1867L21.6216 15.8603L18.2952 19.1867L7.48441 8.37588L0.831601 15.8603L2.78586 23.9118L0 26.6711L2.4948 34.1555L22.4532 44.1347L24.948 39.9767L29.9376 43.3031L33.264 49.9559L37.422 43.3031H44.0748L44.9064 38.3135L39.0852 35.8187Z" fill="#0E8784"/>
</svg>

<svg width="52" height="50" fill="none" xmlns="http://www.w3.org/2000/svg"><path fill-rule="evenodd" clip-rule="evenodd" d="M28.274 5.05V.06L22.831 0 20.79 3.386l2.495 2.496 4.99-.833Zm-5.82 5.82L15.8 4.218l-3.326 3.327 5.673 5.053 4.306-1.726Zm6.994 3.892-3.322-2.416.604-2.717 5.702-.42 7.485 5.82-1.663 4.99-2.495 1.663-2.495-1.664v-2.495l-2.495-3.326-1.321.565Zm19.616 32.7h-1.663a.832.832 0 0 1 0-1.664h1.663a.832.832 0 1 1 0 1.663Zm0-11.643h1.664a.832.832 0 0 0 0-1.663h-1.664a.832.832 0 0 0 0 1.663Zm-9.979 0 4.99-3.327v-3.326l-4.99-4.99-3.326 3.327-3.327-3.327-3.326 2.495 3.326 4.158-2.494 4.99-2.495-4.158-5.821-2.495 3.326-6.653 2.495-3.326-5.821-3.327-3.327 3.327L7.485 8.376.831 15.86l1.954 8.052L0 26.672l2.495 7.484 19.958 9.979 2.495-4.158 4.99 3.326 3.326 6.653 4.158-6.653h6.653l.831-4.99-5.82-2.494Z" fill="#0E8784"/></svg>
